images/3247291.svg

<?xml version="1.0" encoding="UTF-8"?>
<svg xmlns="http://www.w3.org/2000/svg" xmlns:xlink="http://www.w3.org/1999/xlink" width="300pt" height="300pt" viewBox="0 0 300 300" version="1.1">
<defs>
<g>
<symbol overflow="visible" id="glyph0-0">
<path style="stroke:none;" d="M 0.453125 1.59375 L 0.453125 -6.34375 L 4.953125 -6.34375 L 4.953125 1.59375 Z M 0.953125 1.09375 L 4.453125 1.09375 L 4.453125 -5.84375 L 0.953125 -5.84375 Z M 0.953125 1.09375 "/>
</symbol>
<symbol overflow="visible" id="glyph0-1">
<path style="stroke:none;" d="M 0.890625 -6.5625 L 2.078125 -6.5625 L 4.984375 -1.078125 L 4.984375 -6.5625 L 5.84375 -6.5625 L 5.84375 0 L 4.65625 0 L 1.75 -5.484375 L 1.75 0 L 0.890625 0 Z M 0.890625 -6.5625 "/>
</symbol>
<symbol overflow="visible" id="glyph0-2">
<path style="stroke:none;" d="M 0.890625 -6.5625 L 1.765625 -6.5625 L 1.765625 -3.875 L 5 -3.875 L 5 -6.5625 L 5.890625 -6.5625 L 5.890625 0 L 5 0 L 5 -3.125 L 1.765625 -3.125 L 1.765625 0 L 0.890625 0 Z M 0.890625 -6.5625 "/>
</symbol>
<symbol overflow="visible" id="glyph0-3">
<path style="stroke:none;" d="M 3.546875 -5.953125 C 2.898438 -5.953125 2.382812 -5.710938 2 -5.234375 C 1.625 -4.753906 1.4375 -4.101562 1.4375 -3.28125 C 1.4375 -2.445312 1.625 -1.789062 2 -1.3125 C 2.382812 -0.832031 2.898438 -0.59375 3.546875 -0.59375 C 4.191406 -0.59375 4.703125 -0.832031 5.078125 -1.3125 C 5.453125 -1.789062 5.640625 -2.445312 5.640625 -3.28125 C 5.640625 -4.101562 5.453125 -4.753906 5.078125 -5.234375 C 4.703125 -5.710938 4.191406 -5.953125 3.546875 -5.953125 Z M 3.546875 -6.6875 C 4.460938 -6.6875 5.195312 -6.375 5.75 -5.75 C 6.300781 -5.132812 6.578125 -4.3125 6.578125 -3.28125 C 6.578125 -2.238281 6.300781 -1.410156 5.75 -0.796875 C 5.195312 -0.179688 4.460938 0.125 3.546875 0.125 C 2.617188 0.125 1.878906 -0.179688 1.328125 -0.796875 C 0.773438 -1.410156 0.5 -2.238281 0.5 -3.28125 C 0.5 -4.3125 0.773438 -5.132812 1.328125 -5.75 C 1.878906 -6.375 2.617188 -6.6875 3.546875 -6.6875 Z M 3.546875 -6.6875 "/>
</symbol>
</g>
</defs>
<g id="surface29241">
<rect x="0" y="0" width="300" height="300" style="fill:rgb(100%,100%,100%);fill-opacity:1;stroke:none;"/>
<path style=" stroke:none;fill-rule:nonzero;fill:rgb(0%,0%,0%);fill-opacity:1;" d="M 131.203125 176.863281 L 128.542969 195.433594 L 135.058594 195.222656 Z M 131.203125 176.863281 "/>
<path style="fill:none;stroke-width:1.2;stroke-linecap:butt;stroke-linejoin:miter;stroke:rgb(0%,0%,0%);stroke-opacity:1;stroke-miterlimit:10;" d="M 131.203125 176.863281 L 146.894531 167.113281 "/>
<path style="fill:none;stroke-width:1.2;stroke-linecap:butt;stroke-linejoin:miter;stroke:rgb(0%,0%,0%);stroke-opacity:1;stroke-miterlimit:10;" d="M 131.203125 176.863281 L 114.910156 168.148438 "/>
<path style=" stroke:none;fill-rule:nonzero;fill:rgb(0%,0%,0%);fill-opacity:1;" d="M 146.894531 167.113281 L 165.46875 169.773438 L 165.257812 163.253906 Z M 146.894531 167.113281 "/>
<path style="fill:none;stroke-width:1.2;stroke-linecap:butt;stroke-linejoin:miter;stroke:rgb(0%,0%,0%);stroke-opacity:1;stroke-miterlimit:10;" d="M 155.613281 150.820312 L 146.894531 167.113281 "/>
<path style="fill:none;stroke-width:1.2;stroke-linecap:butt;stroke-linejoin:miter;stroke:rgb(0%,0%,0%);stroke-opacity:1;stroke-miterlimit:10;" d="M 165.363281 166.515625 L 155.613281 150.820312 "/>
<path style=" stroke:none;fill-rule:nonzero;fill:rgb(0%,0%,0%);fill-opacity:1;" d="M 155.613281 150.820312 L 143.09375 136.84375 L 139.066406 141.972656 Z M 155.613281 150.820312 "/>
<path style="fill:none;stroke-width:1.2;stroke-linecap:butt;stroke-linejoin:miter;stroke:rgb(0%,0%,0%);stroke-opacity:1;stroke-miterlimit:10;" d="M 155.613281 150.820312 L 169.371094 138.492188 "/>
<path style="fill:none;stroke-width:1;stroke-linecap:butt;stroke-linejoin:miter;stroke:rgb(0%,0%,0%);stroke-opacity:1;stroke-miterlimit:10;" d="M 169.371094 138.492188 L 169.371094 138.492188 M 169.277344 135.496094 L 168.253906 135.707031 M 169.179688 132.496094 L 167.136719 132.925781 M 169.082031 129.496094 L 166.019531 130.140625 M 168.984375 126.5 L 164.902344 127.355469 M 168.890625 123.5 L 163.785156 124.570312 M 168.792969 120.503906 L 162.667969 121.789062 M 168.769531 119.742188 L 162.386719 121.082031 "/>
<path style="fill:none;stroke-width:1.2;stroke-linecap:butt;stroke-linejoin:miter;stroke:rgb(0%,0%,0%);stroke-opacity:1;stroke-miterlimit:10;" d="M 169.371094 138.492188 L 178.152344 141.371094 "/>
<path style="fill:none;stroke-width:1.2;stroke-linecap:butt;stroke-linejoin:miter;stroke:rgb(0%,0%,100%);stroke-opacity:1;stroke-miterlimit:10;" d="M 178.152344 141.371094 L 186.929688 144.246094 "/>
<path style="fill:none;stroke-width:1.2;stroke-linecap:butt;stroke-linejoin:miter;stroke:rgb(0%,0%,0%);stroke-opacity:1;stroke-miterlimit:10;" d="M 165.578125 120.410156 L 179.339844 108.082031 "/>
<path style="fill:none;stroke-width:1.2;stroke-linecap:butt;stroke-linejoin:miter;stroke:rgb(0%,0%,0%);stroke-opacity:1;stroke-miterlimit:10;" d="M 164.050781 115.941406 L 175.0625 106.078125 "/>
<path style="fill:none;stroke-width:1.2;stroke-linecap:butt;stroke-linejoin:miter;stroke:rgb(0%,0%,0%);stroke-opacity:1;stroke-miterlimit:10;" d="M 148.019531 114.65625 L 165.578125 120.410156 "/>
<path style="fill:none;stroke-width:1.2;stroke-linecap:butt;stroke-linejoin:miter;stroke:rgb(0%,0%,0%);stroke-opacity:1;stroke-miterlimit:10;" d="M 179.339844 108.082031 L 175.542969 90 "/>
<path style="fill:none;stroke-width:1.2;stroke-linecap:butt;stroke-linejoin:miter;stroke:rgb(0%,0%,0%);stroke-opacity:1;stroke-miterlimit:10;" d="M 175.542969 90 L 157.984375 84.246094 "/>
<path style="fill:none;stroke-width:1.2;stroke-linecap:butt;stroke-linejoin:miter;stroke:rgb(0%,0%,0%);stroke-opacity:1;stroke-miterlimit:10;" d="M 172.433594 93.558594 L 158.386719 88.953125 "/>
<path style="fill:none;stroke-width:1.2;stroke-linecap:butt;stroke-linejoin:miter;stroke:rgb(0%,0%,0%);stroke-opacity:1;stroke-miterlimit:10;" d="M 157.984375 84.246094 L 144.222656 96.574219 "/>
<path style="fill:none;stroke-width:1.2;stroke-linecap:butt;stroke-linejoin:miter;stroke:rgb(0%,0%,0%);stroke-opacity:1;stroke-miterlimit:10;" d="M 144.222656 96.574219 L 148.019531 114.65625 "/>
<path style="fill:none;stroke-width:1.2;stroke-linecap:butt;stroke-linejoin:miter;stroke:rgb(0%,0%,0%);stroke-opacity:1;stroke-miterlimit:10;" d="M 148.859375 97.492188 L 151.894531 111.957031 "/>
<path style="fill:none;stroke-width:1.2;stroke-linecap:butt;stroke-linejoin:miter;stroke:rgb(0%,0%,100%);stroke-opacity:1;stroke-miterlimit:10;" d="M 186.929688 144.246094 L 188.828125 153.289062 "/>
<path style="fill:none;stroke-width:1.2;stroke-linecap:butt;stroke-linejoin:miter;stroke:rgb(0%,0%,0%);stroke-opacity:1;stroke-miterlimit:10;" d="M 188.828125 153.289062 L 190.726562 162.328125 "/>
<path style=" stroke:none;fill-rule:nonzero;fill:rgb(100%,100%,100%);fill-opacity:1;" d="M 179.929688 138.746094 L 193.929688 138.746094 L 193.929688 149.746094 L 179.929688 149.746094 Z M 179.929688 138.746094 "/>
<g style="fill:rgb(0%,0%,100%);fill-opacity:1;">
  <use xlink:href="#glyph0-1" x="179.929688" y="147.40918"/>
  <use xlink:href="#glyph0-2" x="186.907227" y="147.40918"/>
</g>
<path style="fill:none;stroke-width:1.2;stroke-linecap:butt;stroke-linejoin:miter;stroke:rgb(0%,0%,0%);stroke-opacity:1;stroke-miterlimit:10;" d="M 189.273438 160.710938 L 182.394531 166.875 "/>
<path style="fill:none;stroke-width:1.2;stroke-linecap:butt;stroke-linejoin:miter;stroke:rgb(100%,0%,0%);stroke-opacity:1;stroke-miterlimit:10;" d="M 182.394531 166.875 L 175.515625 173.039062 "/>
<path style="fill:none;stroke-width:1.2;stroke-linecap:butt;stroke-linejoin:miter;stroke:rgb(0%,0%,0%);stroke-opacity:1;stroke-miterlimit:10;" d="M 192.175781 163.945312 L 185.296875 170.109375 "/>
<path style="fill:none;stroke-width:1.2;stroke-linecap:butt;stroke-linejoin:miter;stroke:rgb(100%,0%,0%);stroke-opacity:1;stroke-miterlimit:10;" d="M 185.296875 170.109375 L 178.414062 176.273438 "/>
<path style="fill:none;stroke-width:1.2;stroke-linecap:butt;stroke-linejoin:miter;stroke:rgb(0%,0%,0%);stroke-opacity:1;stroke-miterlimit:10;" d="M 190.726562 162.328125 L 199.503906 165.203125 "/>
<path style="fill:none;stroke-width:1.2;stroke-linecap:butt;stroke-linejoin:miter;stroke:rgb(100%,0%,0%);stroke-opacity:1;stroke-miterlimit:10;" d="M 199.503906 165.203125 L 208.28125 168.082031 "/>
<path style=" stroke:none;fill-rule:nonzero;fill:rgb(100%,100%,100%);fill-opacity:1;" d="M 168.964844 169.15625 L 176.964844 169.15625 L 176.964844 180.15625 L 168.964844 180.15625 Z M 168.964844 169.15625 "/>
<g style="fill:rgb(100%,0%,0%);fill-opacity:1;">
  <use xlink:href="#glyph0-3" x="168.964844" y="177.819336"/>
</g>
<path style="fill:none;stroke-width:1.2;stroke-linecap:butt;stroke-linejoin:miter;stroke:rgb(100%,0%,0%);stroke-opacity:1;stroke-miterlimit:10;" d="M 208.28125 168.082031 L 210.179688 177.121094 "/>
<path style="fill:none;stroke-width:1.2;stroke-linecap:butt;stroke-linejoin:miter;stroke:rgb(0%,0%,0%);stroke-opacity:1;stroke-miterlimit:10;" d="M 210.179688 177.121094 L 212.078125 186.164062 "/>
<path style=" stroke:none;fill-rule:nonzero;fill:rgb(100%,100%,100%);fill-opacity:1;" d="M 204.28125 162.582031 L 212.28125 162.582031 L 212.28125 173.582031 L 204.28125 173.582031 Z M 204.28125 162.582031 "/>
<g style="fill:rgb(100%,0%,0%);fill-opacity:1;">
  <use xlink:href="#glyph0-3" x="204.28125" y="171.245117"/>
</g>
<path style="fill:none;stroke-width:1.2;stroke-linecap:butt;stroke-linejoin:miter;stroke:rgb(0%,0%,0%);stroke-opacity:1;stroke-miterlimit:10;" d="M 212.078125 186.164062 L 229.636719 191.917969 "/>
<path style="fill:none;stroke-width:1.2;stroke-linecap:butt;stroke-linejoin:miter;stroke:rgb(0%,0%,0%);stroke-opacity:1;stroke-miterlimit:10;" d="M 229.636719 191.917969 L 233.429688 210 "/>
<path style="fill:none;stroke-width:1.2;stroke-linecap:butt;stroke-linejoin:miter;stroke:rgb(0%,0%,0%);stroke-opacity:1;stroke-miterlimit:10;" d="M 234.269531 192.832031 L 237.304688 207.296875 "/>
<path style="fill:none;stroke-width:1.2;stroke-linecap:butt;stroke-linejoin:miter;stroke:rgb(0%,0%,0%);stroke-opacity:1;stroke-miterlimit:10;" d="M 243.398438 179.589844 L 229.636719 191.917969 "/>
<path style="fill:none;stroke-width:1.2;stroke-linecap:butt;stroke-linejoin:miter;stroke:rgb(0%,0%,0%);stroke-opacity:1;stroke-miterlimit:10;" d="M 233.429688 210 L 250.988281 215.753906 "/>
<path style="fill:none;stroke-width:1.2;stroke-linecap:butt;stroke-linejoin:miter;stroke:rgb(0%,0%,0%);stroke-opacity:1;stroke-miterlimit:10;" d="M 250.988281 215.753906 L 264.75 203.425781 "/>
<path style="fill:none;stroke-width:1.2;stroke-linecap:butt;stroke-linejoin:miter;stroke:rgb(0%,0%,0%);stroke-opacity:1;stroke-miterlimit:10;" d="M 249.464844 211.28125 L 260.472656 201.417969 "/>
<path style="fill:none;stroke-width:1.2;stroke-linecap:butt;stroke-linejoin:miter;stroke:rgb(0%,0%,0%);stroke-opacity:1;stroke-miterlimit:10;" d="M 264.75 203.425781 L 260.953125 185.34375 "/>
<path style="fill:none;stroke-width:1.2;stroke-linecap:butt;stroke-linejoin:miter;stroke:rgb(0%,0%,0%);stroke-opacity:1;stroke-miterlimit:10;" d="M 260.953125 185.34375 L 243.398438 179.589844 "/>
<path style="fill:none;stroke-width:1.2;stroke-linecap:butt;stroke-linejoin:miter;stroke:rgb(0%,0%,0%);stroke-opacity:1;stroke-miterlimit:10;" d="M 257.84375 188.898438 L 243.800781 184.296875 "/>
<path style="fill:none;stroke-width:1.2;stroke-linecap:butt;stroke-linejoin:miter;stroke:rgb(0%,0%,0%);stroke-opacity:1;stroke-miterlimit:10;" d="M 117.085938 168.078125 L 116.785156 158.84375 "/>
<path style="fill:none;stroke-width:1.2;stroke-linecap:butt;stroke-linejoin:miter;stroke:rgb(100%,0%,0%);stroke-opacity:1;stroke-miterlimit:10;" d="M 116.785156 158.84375 L 116.484375 149.613281 "/>
<path style="fill:none;stroke-width:1.2;stroke-linecap:butt;stroke-linejoin:miter;stroke:rgb(0%,0%,0%);stroke-opacity:1;stroke-miterlimit:10;" d="M 112.738281 168.21875 L 112.441406 158.984375 "/>
<path style="fill:none;stroke-width:1.2;stroke-linecap:butt;stroke-linejoin:miter;stroke:rgb(100%,0%,0%);stroke-opacity:1;stroke-miterlimit:10;" d="M 112.441406 158.984375 L 112.140625 149.753906 "/>
<path style="fill:none;stroke-width:1.2;stroke-linecap:butt;stroke-linejoin:miter;stroke:rgb(0%,0%,0%);stroke-opacity:1;stroke-miterlimit:10;" d="M 114.910156 168.148438 L 107.066406 173.023438 "/>
<path style="fill:none;stroke-width:1.2;stroke-linecap:butt;stroke-linejoin:miter;stroke:rgb(0%,0%,100%);stroke-opacity:1;stroke-miterlimit:10;" d="M 107.066406 173.023438 L 99.21875 177.898438 "/>
<path style=" stroke:none;fill-rule:nonzero;fill:rgb(100%,100%,100%);fill-opacity:1;" d="M 110.3125 144.183594 L 118.3125 144.183594 L 118.3125 155.183594 L 110.3125 155.183594 Z M 110.3125 144.183594 "/>
<g style="fill:rgb(100%,0%,0%);fill-opacity:1;">
  <use xlink:href="#glyph0-3" x="110.3125" y="152.84668"/>
</g>
<path style="fill:none;stroke-width:1.2;stroke-linecap:butt;stroke-linejoin:miter;stroke:rgb(0%,0%,100%);stroke-opacity:1;stroke-miterlimit:10;" d="M 99.21875 177.898438 L 91.074219 173.542969 "/>
<path style="fill:none;stroke-width:1.2;stroke-linecap:butt;stroke-linejoin:miter;stroke:rgb(0%,0%,0%);stroke-opacity:1;stroke-miterlimit:10;" d="M 91.074219 173.542969 L 82.925781 169.183594 "/>
<path style=" stroke:none;fill-rule:nonzero;fill:rgb(100%,100%,100%);fill-opacity:1;" d="M 92.21875 172.398438 L 106.21875 172.398438 L 106.21875 183.398438 L 92.21875 183.398438 Z M 92.21875 172.398438 "/>
<g style="fill:rgb(0%,0%,100%);fill-opacity:1;">
  <use xlink:href="#glyph0-1" x="92.21875" y="181.061523"/>
  <use xlink:href="#glyph0-2" x="99.196289" y="181.061523"/>
</g>
<path style="fill:none;stroke-width:1.2;stroke-linecap:butt;stroke-linejoin:miter;stroke:rgb(0%,0%,0%);stroke-opacity:1;stroke-miterlimit:10;" d="M 82.925781 169.183594 L 67.234375 178.933594 "/>
<path style="fill:none;stroke-width:1.2;stroke-linecap:butt;stroke-linejoin:miter;stroke:rgb(0%,0%,0%);stroke-opacity:1;stroke-miterlimit:10;" d="M 67.234375 178.933594 L 50.941406 170.21875 "/>
<path style="fill:none;stroke-width:1.2;stroke-linecap:butt;stroke-linejoin:miter;stroke:rgb(0%,0%,0%);stroke-opacity:1;stroke-miterlimit:10;" d="M 63.554688 181.898438 L 50.523438 174.925781 "/>
<path style="fill:none;stroke-width:1.2;stroke-linecap:butt;stroke-linejoin:miter;stroke:rgb(0%,0%,0%);stroke-opacity:1;stroke-miterlimit:10;" d="M 67.832031 197.402344 L 67.234375 178.933594 "/>
<path style="fill:none;stroke-width:1.2;stroke-linecap:butt;stroke-linejoin:miter;stroke:rgb(0%,0%,0%);stroke-opacity:1;stroke-miterlimit:10;" d="M 50.941406 170.21875 L 35.25 179.972656 "/>
<path style="fill:none;stroke-width:1.2;stroke-linecap:butt;stroke-linejoin:miter;stroke:rgb(0%,0%,0%);stroke-opacity:1;stroke-miterlimit:10;" d="M 35.25 179.972656 L 35.847656 198.4375 "/>
<path style="fill:none;stroke-width:1.2;stroke-linecap:butt;stroke-linejoin:miter;stroke:rgb(0%,0%,0%);stroke-opacity:1;stroke-miterlimit:10;" d="M 39.65625 181.675781 L 40.132812 196.449219 "/>
<path style="fill:none;stroke-width:1.2;stroke-linecap:butt;stroke-linejoin:miter;stroke:rgb(0%,0%,0%);stroke-opacity:1;stroke-miterlimit:10;" d="M 35.847656 198.4375 L 52.140625 207.152344 "/>
<path style="fill:none;stroke-width:1.2;stroke-linecap:butt;stroke-linejoin:miter;stroke:rgb(0%,0%,0%);stroke-opacity:1;stroke-miterlimit:10;" d="M 52.140625 207.152344 L 67.832031 197.402344 "/>
<path style="fill:none;stroke-width:1.2;stroke-linecap:butt;stroke-linejoin:miter;stroke:rgb(0%,0%,0%);stroke-opacity:1;stroke-miterlimit:10;" d="M 51.414062 202.484375 L 63.96875 194.683594 "/>
</g>
</svg>

<svg xmlns="http://www.w3.org/2000/svg" xmlns:xlink="http://www.w3.org/1999/xlink" width="300pt" height="300pt" viewBox="0 0 300 300"><defs><symbol overflow="visible"><path d="M.453 1.594v-7.938h4.5v7.938zm.5-.5h3.5v-6.938h-3.5zm0 0"/></symbol><symbol overflow="visible" id="a"><path d="M.89-6.563H2.08l2.906 5.485v-5.484h.86V0H4.656L1.75-5.484V0H.89zm0 0"/></symbol><symbol overflow="visible" id="b"><path d="M.89-6.563h.876v2.688H5v-2.688h.89V0H5v-3.125H1.766V0H.89zm0 0"/></symbol><symbol overflow="visible" id="c"><path d="M3.547-5.953c-.65 0-1.164.242-1.547.72-.375.48-.563 1.13-.563 1.952 0 .835.188 1.49.563 1.967.383.48.898.72 1.547.72.644 0 1.156-.24 1.53-.72.376-.476.564-1.132.564-1.968 0-.822-.187-1.474-.562-1.954-.375-.477-.887-.72-1.53-.72zm0-.734c.914 0 1.648.312 2.203.937.55.617.828 1.438.828 2.47 0 1.042-.277 1.87-.828 2.483-.555.617-1.29.922-2.203.922-.93 0-1.668-.305-2.22-.922C.774-1.41.5-2.237.5-3.28c0-1.033.273-1.853.828-2.47.55-.625 1.29-.938 2.22-.938zm0 0"/></symbol></defs><g><path fill="#fff" d="M0 0h300v300H0z"/><path d="M131.203 176.863l-2.66 18.57 6.516-.21zm0 0"/><path d="M131.203 176.863l15.692-9.75M131.203 176.863l-16.293-8.715" stroke-width="1.2" stroke="#000" stroke-miterlimit="10" fill="none"/><path d="M146.895 167.113l18.574 2.66-.212-6.52zm0 0"/><path d="M155.613 150.82l-8.718 16.293M165.363 166.516l-9.75-15.696" stroke-width="1.2" stroke="#000" stroke-miterlimit="10" fill="none"/><path d="M155.613 150.82l-12.52-13.976-4.027 5.13zm0 0"/><path d="M155.613 150.82l13.758-12.328" stroke-width="1.2" stroke="#000" stroke-miterlimit="10" fill="none"/><path d="M169.37 138.492m-.093-2.996l-1.023.21m.926-3.21l-2.043.43m1.945-3.43l-3.062.645m2.964-3.64l-4.082.855m3.99-3.855l-5.107 1.07m5.008-4.066l-6.125 1.285m6.102-2.048l-6.383 1.34" stroke="#000" stroke-miterlimit="10" fill="none"/><path d="M169.37 138.492l8.782 2.88" stroke-width="1.2" stroke="#000" stroke-miterlimit="10" fill="none"/><path d="M178.152 141.37l8.778 2.876" stroke-width="1.2" stroke="#00f" stroke-miterlimit="10" fill="none"/><path d="M165.578 120.41l13.762-12.328M164.05 115.94l11.012-9.862M148.02 114.656l17.558 5.754M179.34 108.082L175.543 90M175.543 90l-17.56-5.754M172.434 93.56l-14.047-4.607M157.984 84.246l-13.76 12.328M144.223 96.574l3.797 18.082M148.86 97.492l3.035 14.465" stroke-width="1.2" stroke="#000" stroke-miterlimit="10" fill="none"/><path d="M186.93 144.246l1.898 9.043" stroke-width="1.2" stroke="#00f" stroke-miterlimit="10" fill="none"/><path d="M188.828 153.29l1.9 9.038" stroke-width="1.2" stroke="#000" stroke-miterlimit="10" fill="none"/><path d="M179.93 138.746h14v11h-14zm0 0" fill="#fff"/><g fill="#00f"><use xlink:href="#a" x="179.93" y="147.409"/><use xlink:href="#b" x="186.907" y="147.409"/></g><path d="M189.273 160.71l-6.878 6.165" stroke-width="1.2" stroke="#000" stroke-miterlimit="10" fill="none"/><path d="M182.395 166.875l-6.88 6.164" stroke-width="1.2" stroke="#f00" stroke-miterlimit="10" fill="none"/><path d="M192.176 163.945l-6.88 6.164" stroke-width="1.2" stroke="#000" stroke-miterlimit="10" fill="none"/><path d="M185.297 170.11l-6.883 6.163" stroke-width="1.2" stroke="#f00" stroke-miterlimit="10" fill="none"/><path d="M190.727 162.328l8.777 2.875" stroke-width="1.2" stroke="#000" stroke-miterlimit="10" fill="none"/><path d="M199.504 165.203l8.777 2.88" stroke-width="1.2" stroke="#f00" stroke-miterlimit="10" fill="none"/><path d="M168.965 169.156h8v11h-8zm0 0" fill="#fff"/><use xlink:href="#c" x="168.965" y="177.819" fill="#f00"/><path d="M208.28 168.082l1.9 9.04" stroke-width="1.2" stroke="#f00" stroke-miterlimit="10" fill="none"/><path d="M210.18 177.12l1.898 9.044" stroke-width="1.2" stroke="#000" stroke-miterlimit="10" fill="none"/><path d="M204.28 162.582h8v11h-8zm0 0" fill="#fff"/><use xlink:href="#c" x="204.281" y="171.245" fill="#f00"/><path d="M212.078 186.164l17.56 5.754M229.637 191.918L233.43 210M234.27 192.832l3.035 14.465M243.398 179.59l-13.76 12.328M233.43 210l17.558 5.754M250.988 215.754l13.762-12.328M249.465 211.28l11.008-9.862M264.75 203.426l-3.797-18.082M260.953 185.344l-17.555-5.754M257.844 188.898l-14.043-4.6M117.086 168.078l-.3-9.234" stroke-width="1.2" stroke="#000" stroke-miterlimit="10" fill="none"/><path d="M116.785 158.844l-.3-9.23" stroke-width="1.2" stroke="#f00" stroke-miterlimit="10" fill="none"/><path d="M112.738 168.22l-.297-9.236" stroke-width="1.2" stroke="#000" stroke-miterlimit="10" fill="none"/><path d="M112.44 158.984l-.3-9.23" stroke-width="1.2" stroke="#f00" stroke-miterlimit="10" fill="none"/><path d="M114.91 168.148l-7.844 4.875" stroke-width="1.2" stroke="#000" stroke-miterlimit="10" fill="none"/><path d="M107.066 173.023l-7.847 4.875" stroke-width="1.2" stroke="#00f" stroke-miterlimit="10" fill="none"/><path d="M110.313 144.184h8v11h-8zm0 0" fill="#fff"/><use xlink:href="#c" x="110.313" y="152.847" fill="#f00"/><path d="M99.22 177.898l-8.146-4.355" stroke-width="1.2" stroke="#00f" stroke-miterlimit="10" fill="none"/><path d="M91.074 173.543l-8.148-4.36" stroke-width="1.2" stroke="#000" stroke-miterlimit="10" fill="none"/><path d="M92.22 172.398h14v11h-14zm0 0" fill="#fff"/><g fill="#00f"><use xlink:href="#a" x="92.219" y="181.062"/><use xlink:href="#b" x="99.196" y="181.062"/></g><path d="M82.926 169.184l-15.692 9.75M67.234 178.934L50.94 170.22M63.555 181.898l-13.032-6.972M67.832 197.402l-.598-18.468M50.94 170.22l-15.69 9.753M35.25 179.973l.598 18.464M39.656 181.676l.477 14.773M35.848 198.438l16.293 8.714M52.14 207.152l15.692-9.75M51.414 202.484l12.555-7.8" stroke-width="1.2" stroke="#000" stroke-miterlimit="10" fill="none"/></g></svg>
